svg/editor/pencil_ruler_line.svg

<?xml version="1.0" encoding="UTF-8"?>
<svg width="24px" height="24px" viewBox="0 0 24 24" version="1.1" xmlns="http://www.w3.org/2000/svg" xmlns:xlink="http://www.w3.org/1999/xlink">
    <title>pencil_ruler_line</title>
    <g id="Icon" stroke="none" stroke-width="1" fill="none" fill-rule="evenodd">
        <g id="Editor" transform="translate(-528.000000, -288.000000)">
            <g id="pencil_ruler_line" transform="translate(528.000000, 288.000000)">
                <path d="M24,0 L24,24 L0,24 L0,0 L24,0 Z M12.5935,23.2578 L12.5819,23.2595 L12.5109,23.295 L12.4919,23.2987 L12.4767,23.295 L12.4057,23.2595 C12.3958,23.2564 12.387,23.259 12.3821,23.2649 L12.378,23.2758 L12.3609,23.7031 L12.3659,23.7235 L12.3769,23.7357 L12.4805,23.8097 L12.4953,23.8136 L12.5071,23.8097 L12.6107,23.7357 L12.6233,23.7197 L12.6267,23.7031 L12.6096,23.2758 C12.6076,23.2657 12.601,23.2593 12.5935,23.2578 Z M12.8584,23.1453 L12.8445,23.1473 L12.6598,23.2397 L12.6499,23.2499 L12.6472,23.2611 L12.6651,23.6906 L12.6699,23.7034 L12.6784,23.7105 L12.8793,23.8032 C12.8914,23.8069 12.9022,23.803 12.9078,23.7952 L12.9118,23.7812 L12.8777,23.1665 C12.8753,23.1546 12.8674,23.147 12.8584,23.1453 Z M12.143,23.1473 C12.1332,23.1424 12.1222,23.1453 12.1156,23.1526 L12.1099,23.1665 L12.0758,23.7812 C12.0751,23.7927 12.0828,23.8019 12.0926,23.8046 L12.1083,23.8032 L12.3092,23.7105 L12.3186,23.7024 L12.3225,23.6906 L12.3404,23.2611 L12.3372,23.2485 L12.3278,23.2397 L12.143,23.1473 Z" id="MingCute" fill-rule="nonzero"></path>
                <path d="M19.571,3.7217 L20.2781,4.4288 C21.4497,5.60038 21.4497,7.49987 20.2781,8.67144 L17.3032,11.6464 L20.4853,14.8285 C21.2663,15.6095 21.2664,16.8759 20.4853,17.6569 L17.6569,20.4853 C16.8758,21.2664 15.6095,21.2664 14.8284,20.4853 L11.6463,17.3032 L9.28264,19.6669 C9.0504,19.8992 8.74835,20.0488 8.42286,20.0928 L4.50348,20.6224 C3.84874,20.7109 3.28887,20.1518 3.37744,19.4964 L3.90706,15.577 C3.95105,15.2515 4.10065,14.9494 4.33289,14.7172 L6.6966,12.3535 L3.51474,9.17163 C2.73369,8.39058 2.73369,7.12425 3.51474,6.3432 L6.34317,3.51478 C7.12422,2.73373 8.39055,2.73373 9.17159,3.51478 L12.3535,6.69663 L15.3284,3.7217 C16.5,2.55012 18.3995,2.55012 19.571,3.7217 Z M15.889,13.0606 L13.0606,15.889 L13.4143,16.2427 L14.1213,15.5357 C14.5118,15.1452 15.145,15.1452 15.5355,15.5357 C15.8960538,15.8961615 15.9237888,16.4634207 15.6187047,16.8556973 L15.5355,16.9499 L14.8285,17.657 L16.2427,19.0711 L19.0711,16.2427 L15.889,13.0606 Z M14.6213,7.25722 L5.86645,16.0121 L5.53501,18.4649 L7.98777,18.1334 L16.7426,9.37854 L14.6213,7.25722 Z M7.75738,4.92899 L4.92895,7.75742 L6.34323,9.17169 L7.05027,8.46465 C7.4408,8.07413 8.07396,8.07413 8.46449,8.46465 C8.82497,8.82513923 8.85269923,9.39236645 8.54767769,9.78466152 L8.46449,9.87887 L7.75745,10.5859 L8.11081,10.9393 L10.9392,8.11085 L7.75738,4.92899 Z M16.7426,5.13591 L16.0355,5.84301 L18.1568,7.96433 L18.8639,7.25723 C19.2544,6.86671 19.2544,6.23354 18.8639,5.84302 L18.1568,5.13591 C17.7663,4.74539 17.1331,4.74539 16.7426,5.13591 Z" id="形状" fill="#09244B"></path>
            </g>
        </g>
    </g>
</svg>

<svg xmlns="http://www.w3.org/2000/svg" width="24" height="24"><g fill="none" fill-rule="evenodd"><path d="M24 0v24H0V0h24ZM12.594 23.258l-.012.002-.071.035-.02.004-.014-.004-.071-.036c-.01-.003-.019 0-.024.006l-.004.01-.017.428.005.02.01.013.104.074.015.004.012-.004.104-.074.012-.016.004-.017-.017-.427c-.002-.01-.009-.017-.016-.018Zm.264-.113-.014.002-.184.093-.01.01-.003.011.018.43.005.012.008.008.201.092c.012.004.023 0 .029-.008l.004-.014-.034-.614c-.003-.012-.01-.02-.02-.022Zm-.715.002a.023.023 0 0 0-.027.006l-.006.014-.034.614c0 .012.007.02.017.024l.015-.002.201-.093.01-.008.003-.011.018-.43-.003-.012-.01-.01-.184-.092Z"/><path fill="#09244B" d="m19.571 3.722.707.707a3 3 0 0 1 0 4.242l-2.975 2.975 3.182 3.182a2 2 0 0 1 0 2.829l-2.828 2.828a2 2 0 0 1-2.829 0l-3.182-3.182-2.363 2.364a1.5 1.5 0 0 1-.86.426l-3.92.53a1.001 1.001 0 0 1-1.126-1.127l.53-3.919a1.5 1.5 0 0 1 .426-.86l2.364-2.363-3.182-3.182a2 2 0 0 1 0-2.829l2.828-2.828a2 2 0 0 1 2.829 0l3.182 3.182 2.974-2.975a3 3 0 0 1 4.243 0Zm-3.682 9.339-2.828 2.828.353.354.707-.707a1 1 0 0 1 1.498 1.32l-.083.094-.707.707 1.414 1.414 2.828-2.828-3.182-3.182Zm-1.268-5.804-8.755 8.755-.331 2.453 2.453-.332 8.755-8.754-2.122-2.122ZM7.757 4.93 4.93 7.757l1.414 1.415.707-.707a1 1 0 0 1 1.498 1.32l-.084.094-.707.707.354.353 2.828-2.828-3.182-3.182Zm8.986.207-.707.707 2.12 2.121.708-.707a1 1 0 0 0 0-1.414l-.707-.707a1 1 0 0 0-1.414 0Z"/></g></svg>
